X:2
T:Frank and Julie Leahy's
R:strahspey
C:Natalie MacMaster
D:Natalie MacMaster, Blueprint, 2003
Z:Paul Stewart Cranford (P.S.C.), <http://www.cranfordpub.com>
L:1/8
Q:300
M:C
K:Ador
A,>cA<G A2 A>B,|A,>cA>G A<A,A,>B,|A,>cA<G A>Bc>A|G>D E/F/G/D/ B,/C/D/B,/ G,>B,:|
A,>ge<d e2 e>g|e>de>g a<AAge<d e>gaed>c B<GG>B,|
A,>ge<d e2 e>g|e>de>g f<d (3dfg|a>ba>g e>dB>A|G>D E/F/G/D/ B,/C/D/B,/ G,>B,|]
W:Copyrights - Published by MacMaster Music (SOCAN)
